X:1
L:1/8
Q:1/4=120
M:6/8
K:D
""^Irish Jig."" (vfg | a2) vd fed | va2 vd fed | vb2 vg ua2 uf | efe efg | a2 d fed | a2 d fed | 
 b2 g a2 f | ede d2 :: uA | dcd efg | fed cBA | BdB AFD | EFE uE2 uA | dcd efg | fed cBA | 
 BdB AFD | EFE D2 :|
